X:1
T:The Daylesford Street March
M:12/8
L:1/8
Q:80
C:Mark Saul
S:March
K:HP
[| e|
{g}A2{GdGe}A{g}c/2e3/2B{g}c2{GdGe}A{GAG}A2{d}c|
{gef}e3/2c/2e{g}f/2a3/2d{gef}e3-e2f|
{g}f3/2d/2f{ag}a2f{gef}e3/2c/2{d}A{gAGAG}A2{d}c|  !
{gef}e3/2c/2e{g}c/2d3/2c{gBG}B3-B2e{g}A2{GdGe}A{g}c/2e3/2B{g}c2{GdGe}A{G
AG}A2{d}c|
{gef}e3/2c/2e{g}f/2a3/2d{gef}e3-e2f|
{g}f2{GdG}f{ag}a2f{gef}e3/2c/2{d}A{g}e/2a3/2d|  !
{gcd}c3/2{e}B/2{d}c{g}B/2e3/2B{g}A3{GAG}A2|] [|
e|
{GdG}a2{g}ae/2a3/2e{g}f3/2g/2ae3/2c/2{d}A|
{g}f3/2e/2f{ag}a3/2f/2d{gef}e3-e2{gf}g|  !
a3/2f/2d{ag}a2f{gef}e3/2c/2e{gAGAG}A2{d}c|
{gef}e2a{de}d3/2c/2d{gBG}B3-B2e{g}A2{GdGe}A{g}c/2e3/2c{g}f3/2g/2ae3/2c/2
{d}A|
{g}f3/2e/2f{ag}a3/2f/2d{gef}e3-e2f|  !
{g}f2{GdG}f{ag}a2f{gef}e3/2c/2{d}A{g}e/2a3/2d|
{gcd}c3/2{e}B/2{d}c{g}B/2e3/2B{g}A3{GAG}A2|]

